!!!!SEGMENT: pl-wtm--r-2519--009_hertz-michal--kanon.krn
!!!cenid: 18xx:3092
!!!COM: Hertz, Michał
!!!COM-rismID: pe41023359
!!!CDT: 1844/09/28-~1918
!!!CNT: Polish
!!!OTL: Kanon [9]
!!!PDT:
!!!AGN:
!!!SMS-siglum: PL-Wtm
!!!SMS-shelfmark: R 2519
!!!SMS-shelfwork: 009 W
!!!SMS-variant:
!!!SMS-altvar:
!!!NIFC-rismSourceID: 1001082119
!!!NIFC-rismChildID: 1001082119
!!!NIFC-islandoraID:
!!!URL-pdf-islandora:
!!!URL-scan:
!!!ONB-nifc: UWAGA: 9 Kanonów num. 001-009. Skan 0013-0014 (od III&IV do drugiego systemu na 0014)
!!!AIN: 2 piano
!!!key: C
**kern	**kern
*part2	*part1
*staff2	*staff1
*I"[Fortepian]	*I"[Fortepian]
*I'	*I'
*Ipiano	*Ipiano
*ICklav	*ICklav
*clefF4	*clefG2
*k[]	*k[]
*C:	*C:
*M3/4	*M3/4
*>[A,B,B1,B,B2,C]	*>[A,B,B1,B,B2,C]
=1	=1
*>A	*>A
!!LO:TX:t=P:problem:all\większośc z prawej strony
!	!LO:TX:a:i:t=III & IV  d. 13/11. 73.
!	!LO:TX:t=P:problem:pauza całotaktowa 2.
8r	2.r
8E\	.
4.D\	.
8AA/	.
=2!|:	=2!|:
*>B	*>B
4.C\	8r
.	8a/
.	4.g/
8BB/L	.
8AA/	.
8BB/J	8d/
=3	=3
8D\L	4.f/
8C\	.
8BB\	.
8C\	8e/L
8F\	8d/
8E\J	8e/J
!!linebreak:original
=4	=4
8E\L	8g/L
8F\J	8f/
*2\right	*
2G\	8e/
.	8f/
.	8b/
.	8a/J
=5	=5
!LO:TX:t=P:problem:ołówkiem wykreślony # nad nutą	!
8F\	8a/L
4E\	8b/J
*	*2\right
.	2cc\
8D\L	.
8E\	.
8F\J	.
=6	=6
8G\L	8b\
8c\J	4a\
4B\	.
.	8g\L
8A\L	8a\
8G\J	8b\J
!!LO:TX:t=P:problem:wykreślony takt
=7	=7
!!LO:TX:t=P:problem:t. 7-9 po poprawkach ołówkowych
8#F\L	8cc\L
8D\	8ff#X\J
8F#\	4ee\
8G\J	.
4A	8dd\L
.	8cc\J
=8	=8
[4G\	8b\L
.	8g\
8G\L]	8b\
8Fn\J	8cc\J
8E\L	4dd\
8F\J	.
=9||	=9||
!!LO:TX:a:B:t=I
*>B1	*>B1
!!LO:TX:t=P:problem:oznaczenie wolty (I) na środku taktu
8r	[4cc\
8E\	.
4.D\	8cc\L]
.	8b-\J
.	8a\L\
8AA/	8b-\J
=10:|!	=10:|!
!!LO:TX:a:B:t=II
*>B2	*>B2
!!LO:TX:t=P:problem:oznaczenie wolty (II) na środku taktu
8E\L	4cc\
8D\	.
8C\	8cc\L
8D\	8b\J
8E\	4cc\
8F\J	.
!!pagebreak:original
=11	=11
*>C	*>C
4F\	8a/L
.	8g/
4.A\	8f/
.	8g/
.	8a/
8G\	8b/J
=12	=12
8G\L	4b\
8A\	.
8G\	4.dd\
8F\	.
8E\	.
8F\J	8cc\
=13	=13
4G\	8cc\L
.	8dd\
4.e\	8cc\
.	8b\
.	8a\
8d\	8b\J
=14	=14
8B\L	4dd\
8G\	.
8F\	4.aa\
8E\	.
8F\	.
8G\J	8gg\
=15	=15
8G\L	8ee\L
8E\	8cc\
8D\	8b\
8C\	8a\
8D\	8b\
8E\J	8cc\J
=16	=16
8r	8cc\L
8F\	8a\
4.B\	8g\
.	8f\
.	8g\
8A\	8a\J
=17	=17
8A\L	8r
[8G\	8b\
8G\]	4.ee\
8F\	.
8E\	.
8G\J	8dd\
!!linebreak:original
=18||	=18||
8r	8dd\L
8E\	[8cc\
4.D\	8cc\]
.	8b\
.	8a\
8AA/	8cc\J
=19	=19
4.C/	8r
.	8a/
.	4.g/
8BB/L	.
8AA/	.
8BB/J	8d/
=20	=20
8D\L	4.f/
8C\	.
8BB\	.
8C\	8e/L
8F\	8d/
8D\J	8e/J
=21	=21
8E\L	8g/L
8F\J	8f/
2G\	8e/
.	8f/
.	8b/
.	8a/J
=22	=22
!LO:TX:t=P:problem:wykreślony #	!
8F\	8a\L
4E\	8b\J
.	2cc\
8D\L	.
8E\	.
8F\J	.
=23	=23
8G\L	8b\
8c\J	4a\
4B\	.
.	8g\L
8A\L	8a\
8G\J	8b\J
=24	=24
4A\	8cc\L
.	8ff\J
4G\	4ee\
4G\	8dd\L
.	8cc\J
=25	=25
2.c;<\	2.cc;\
==	==
*-	*-
!!!system-decoration: {(s1,s2)}
!!!RDF**kern: > = above
!!!RDF**kern: < = below
!!!RDF**kern: i = editorial accidental
!!!ENC: Katarzyna Serwa
!!!END: 2021-10-29
!!!ENC: Anastazja Marusiak
!!!END: 2021-10-26
!!!YEC: Copyright 2022 Narodowy Instytut Fryderyka Chopina (https://polishscores.org)
!!!YEM: License CC-BY-4.0 (https://creativecommons.org/licenses/by/4.0)
